X: 35243
T: Roscommon, The
R: reel
M: 4/4
K: Edorian
E~G3 B~G3|A~F3 d~F3|E~G3 B~G3|AGFG ~E3D|
E~G3 B~G3|A~F3 d~F3|E~G3 B~G3|AFdF e2 z2||
e~B3 efge|f~a3 bfaf|e~B3 efge|fagf efgf|
e~B3 efge|f~a3 bzag|f~g3 ~f3e|dBAF EFGA||
~B3A B2 dB|A~F3 D~F3|E~B3 Bc dB|AFDE FEED|
~B3A B2 dB|A~F3 d~F3|E~G3 B~G3|AFdF e2 z2||

